kora-light/actions/scalable/fcitx-cangjie.svg

<svg xmlns="http://www.w3.org/2000/svg" width="16" height="16" version="1.1">
 <defs>
  <style id="current-color-scheme" type="text/css">
   .ColorScheme-Text { color:#444444; } .ColorScheme-Highlight { color:#4285f4; }
  </style>
 </defs>
 <path style="fill:currentColor" class="ColorScheme-Text" d="M 2,0 C 0.892,0 0,0.892 0,2 V 14 C 0,15.108 0.892,16 2,16 H 14 C 15.108,16 16,15.108 16,14 V 2 C 16,0.892 15.108,0 14,0 Z M 7.584,1.7227 H 8.416 C 10.26,4.488 14.063,5.0039 14.063,5.0039 L 13.938,5.9961 C 13.938,5.9961 13.104,5.8723 12,5.4609 V 10 H 4.9453 C 4.903,10.339 4.8316,10.673 4.7246,11 H 12 V 14 H 4 V 12.623 L 3.9336,12.748 C 3.4133,13.659 2.8906,14.313 2.8906,14.313 L 2.1094,13.688 C 2.1093,13.688 2.5868,13.091 3.0664,12.252 3.5461,11.413 4,10.333 4,9.5 V 5.4609 C 2.8964,5.8723 2.0625,5.9961 2.0625,5.9961 L 1.9375,5.0039 C 1.9375,5.0039 5.7404,4.488 7.584,1.7227 Z M 8,2.7031 C 7.1412,3.7727 6.0665,4.5017 5.0664,5 H 7.5977 L 6.7227,4.416 7.2773,3.584 8.7773,4.584 8.5,5 H 10.934 C 9.9335,4.5017 8.8588,3.7727 8,2.7031 Z M 5,6 V 7 H 10 V 8 H 5 V 9 H 11 V 6 Z M 5,12 V 13 H 11 V 12 Z"/>
</svg>

<svg xmlns="http://www.w3.org/2000/svg" style="fill-rule:evenodd;clip-rule:evenodd;stroke-linejoin:round;stroke-miterlimit:2" width="100%" height="100%" version="1.1" viewBox="0 0 16 16" xml:space="preserve">
 <defs>
  <style id="current-color-scheme" type="text/css">
   .ColorScheme-Text { color:#444444; } .ColorScheme-Highlight { color:#4285f4; } .ColorScheme-NeutralText { color:#ff9800; } .ColorScheme-PositiveText { color:#4caf50; } .ColorScheme-NegativeText { color:#f44336; }
  </style>
 </defs>
 <path style="fill:currentColor;" class="ColorScheme-Text" d="M7.584,1.723l0.832,-0c1.844,2.765 5.647,3.281 5.647,3.281l-0.125,0.992c0,0 -0.834,-0.124 -1.938,-0.535l0,4.539l-7.055,0c-0.042,0.339 -0.113,0.673 -0.22,1l7.275,0l0,3l-8,0l0,-1.377l-0.066,0.125c-0.521,0.911 -1.043,1.565 -1.043,1.565l-0.782,-0.625c0,0 0.478,-0.597 0.957,-1.436c0.48,-0.839 0.934,-1.919 0.934,-2.752l0,-4.039c-1.104,0.411 -1.938,0.535 -1.938,0.535l-0.125,-0.992c0,-0 3.803,-0.516 5.647,-3.281Zm-2.584,10.277l0,1l6,0l0,-1l-6,0Zm0,-6l0,1l5,0l0,1l-5,0l0,1l6,0l0,-3l-6,0Zm3,-3.297c-0.859,1.07 -1.934,1.799 -2.934,2.297l2.532,0l-0.875,-0.584l0.554,-0.832l1.5,1l-0.277,0.416l2.434,-0c-1.001,-0.498 -2.075,-1.227 -2.934,-2.297Z"/>
</svg>
